logo/postman-icon.svg

<?xml version="1.0" encoding="UTF-8"?>
<svg width="256px" height="256px" viewBox="0 0 256 256" version="1.1" xmlns="http://www.w3.org/2000/svg" xmlns:xlink="http://www.w3.org/1999/xlink" preserveAspectRatio="xMidYMid">
    <g>
        <path d="M254.953118,144.253071 C263.911504,74.1217108 214.38443,10.0052669 144.381048,1.04688158 C74.3776647,-7.9115038 10.0052669,41.6155696 1.04688158,111.618952 C-7.9115038,181.622335 41.6155696,245.866756 111.618952,254.953118 C181.750312,263.911504 245.866756,214.38443 254.953118,144.253071 Z" fill="#FF6C37"></path>
        <g transform="translate(50.181225, 45.198924)">
            <path d="M124.018448,36.9853339 L70.012182,90.9916 L54.7829269,75.7623449 C107.893354,22.6519173 113.140409,27.2590869 124.018448,36.9853339 L124.018448,36.9853339 Z" fill="#FFFFFF"></path>
            <path d="M70.012182,92.2713693 C69.6282512,92.2713693 69.3722974,92.1433924 69.1163435,91.8874385 L53.7591114,76.6581834 C53.2472037,76.1462757 53.2472037,75.3784141 53.7591114,74.8665063 C107.765378,20.8602402 113.396363,25.9793176 124.78631,36.2174723 C125.042264,36.4734262 125.170241,36.72938 125.170241,37.1133108 C125.170241,37.4972416 125.042264,37.7531955 124.78631,38.0091494 L70.7800436,91.8874385 C70.6520667,92.1433924 70.2681359,92.2713693 70.012182,92.2713693 Z M56.574604,75.7623449 L70.012182,89.1999229 L122.098794,37.1133108 C112.628501,28.6668332 106.229654,26.1072945 56.574604,75.7623449 L56.574604,75.7623449 Z" fill="#FF6C37"></path>
            <path d="M85.497391,106.476809 L70.7800436,91.7594616 L124.78631,37.7531955 C139.247703,52.342566 117.619601,76.0182987 85.497391,106.476809 Z" fill="#FFFFFF"></path>
            <path d="M85.497391,107.756578 C85.1134602,107.756578 84.8575064,107.628601 84.6015525,107.372648 L69.8842051,92.6553001 C69.6282512,92.3993463 69.6282512,92.1433924 69.6282512,91.7594616 C69.6282512,91.3755308 69.7562282,91.1195769 70.012182,90.8636231 L124.018448,36.857357 C124.530356,36.3454492 125.298217,36.3454492 125.810125,36.857357 C129.137525,39.9288034 130.929203,44.2800191 130.801226,48.7592118 C130.545272,62.9646515 114.420178,81.0093992 86.5212065,107.372648 C86.1372757,107.628601 85.7533449,107.756578 85.497391,107.756578 L85.497391,107.756578 Z M72.5717207,91.7594616 C80.7622445,100.077962 84.2176217,103.405363 85.497391,104.685132 C106.997516,84.2088225 127.857756,63.2206053 127.985733,48.7592118 C128.11371,45.4318115 126.833941,42.1044113 124.658333,39.5448726 L72.5717207,91.7594616 Z" fill="#FF6C37"></path>
            <path d="M55.0388808,76.1462757 L65.9169201,87.024315 C66.172874,87.2802689 66.172874,87.5362228 65.9169201,87.7921767 C65.7889432,87.9201536 65.7889432,87.9201536 65.6609663,87.9201536 L43.1370259,92.7832771 C41.9852335,92.911254 40.961418,92.1433924 40.7054642,90.9916 C40.5774872,90.3517153 40.8334411,89.7118307 41.2173719,89.3278999 L54.2710192,76.2742526 C54.526973,76.0182987 54.9109038,75.8903218 55.0388808,76.1462757 Z" fill="#FFFFFF"></path>
            <path d="M42.7530951,94.0630464 C40.8334411,94.0630464 39.4256948,92.5273232 39.4256948,90.6076692 C39.4256948,89.7118307 39.8096256,88.8159921 40.4495103,88.1761075 L53.5031576,75.1224602 C54.2710192,74.4825755 55.2948346,74.4825755 56.0626962,75.1224602 L66.9407356,86.0004996 C67.7085972,86.6403842 67.7085972,87.7921767 66.9407356,88.5600383 C66.6847817,88.8159921 66.4288279,88.9439691 66.0448971,89.071946 L43.5209567,93.9350695 C43.2650028,93.9350695 43.009049,94.0630464 42.7530951,94.0630464 L42.7530951,94.0630464 Z M54.65495,77.5540219 L42.1132104,90.0957615 C41.8572566,90.3517153 41.7292796,90.7356461 41.9852335,91.1195769 C42.1132104,91.5035077 42.4971412,91.6314847 42.881072,91.5035077 L63.9972661,86.8963381 L54.65495,77.5540219 Z" fill="#FF6C37"></path>
            <path d="M152.557304,7.03873136 C144.366781,-0.895838537 131.185156,-0.639884669 123.250587,7.67861603 C115.316017,15.9971167 115.57197,29.050764 123.890471,36.9853339 C130.673249,43.5121575 140.911403,44.6639499 148.97395,39.8008264 L134.38458,25.211456 L152.557304,7.03873136 Z" fill="#FFFFFF"></path>
            <path d="M138.223888,44.0240653 C126.066079,44.0240653 116.211855,34.1698413 116.211855,22.0120326 C116.211855,9.85422391 126.066079,-1.81866161e-14 138.223888,-1.81866161e-14 C143.854873,-1.81866161e-14 149.357881,2.17560788 153.453143,6.14289283 C153.709097,6.39884669 153.837074,6.65480056 153.837074,7.03873136 C153.837074,7.42266217 153.709097,7.67861603 153.453143,7.9345699 L136.176257,25.211456 L149.741812,38.777011 C150.25372,39.2889187 150.25372,40.0567803 149.741812,40.568688 C149.613835,40.696665 149.613835,40.696665 149.485858,40.8246419 C146.158458,42.8722729 142.191173,44.0240653 138.223888,44.0240653 Z M138.223888,2.68751561 C127.473825,2.68751561 118.771394,11.3899471 118.899371,22.1400096 C118.899371,32.890072 127.601802,41.5925035 138.351865,41.4645266 C141.295334,41.4645266 144.238804,40.8246419 146.926319,39.4168956 L133.488741,26.1072945 C133.232787,25.8513406 133.10481,25.5953868 133.10481,25.211456 C133.10481,24.8275252 133.232787,24.5715713 133.488741,24.3156174 L150.63765,7.1667083 C147.182273,4.22323882 142.831057,2.68751561 138.223888,2.68751561 L138.223888,2.68751561 Z" fill="#FF6C37"></path>
            <path d="M152.941235,7.42266217 L152.685281,7.1667083 L134.38458,25.211456 L148.845973,39.6728495 C150.25372,38.777011 151.661466,37.7531955 152.813258,36.6014031 C161.003782,28.5388563 161.003782,15.485209 152.941235,7.42266217 L152.941235,7.42266217 Z" fill="#FFFFFF"></path>
            <path d="M148.97395,41.0805958 C148.590019,41.0805958 148.334066,40.9526188 148.078112,40.696665 L133.488741,26.1072945 C133.232787,25.8513406 133.10481,25.5953868 133.10481,25.211456 C133.10481,24.8275252 133.232787,24.5715713 133.488741,24.3156174 L151.661466,6.14289283 C152.173374,5.63098509 152.941235,5.63098509 153.453143,6.14289283 L153.837074,6.39884669 C162.411528,14.9733013 162.411528,28.7948101 153.965051,37.4972416 C152.685281,38.777011 151.277535,39.9288034 149.741812,40.8246419 C149.357881,40.9526188 149.101927,41.0805958 148.97395,41.0805958 L148.97395,41.0805958 Z M136.176257,25.211456 L149.101927,38.1371263 C150.125743,37.4972416 151.149558,36.6014031 151.91742,35.8335415 C159.212105,28.5388563 159.596036,16.6370014 152.557304,8.95838537 L136.176257,25.211456 Z" fill="#FF6C37"></path>
            <path d="M126.194056,39.2889187 C123.12261,36.2174723 118.131509,36.2174723 115.060063,39.2889187 L66.8127587,87.5362228 L74.8753055,95.5987696 L125.938102,50.8068428 C129.265502,47.9913502 129.521456,43.0002498 126.705964,39.6728495 C126.45001,39.5448726 126.322033,39.4168956 126.194056,39.2889187 L126.194056,39.2889187 Z" fill="#FFFFFF"></path>
            <path d="M74.7473286,96.878539 C74.3633978,96.878539 74.1074439,96.750562 73.85149,96.4946082 L65.7889432,88.4320613 C65.2770355,87.9201536 65.2770355,87.152292 65.7889432,86.6403842 L114.036247,38.3930802 C117.619601,34.809726 123.378563,34.809726 126.961918,38.3930802 C130.545272,41.9764343 130.545272,47.7353963 126.961918,51.3187505 C126.833941,51.4467274 126.705964,51.5747044 126.577987,51.7026813 L75.5151902,96.4946082 C75.3872133,96.750562 75.1312594,96.878539 74.7473286,96.878539 L74.7473286,96.878539 Z M68.6044358,87.5362228 L74.8753055,93.8070925 L125.042264,49.7830273 C127.857756,47.4794425 128.11371,43.2562037 125.810125,40.4407111 C123.50654,37.6252186 119.283302,37.3692647 116.467809,39.6728495 C116.339832,39.8008264 116.211855,39.9288034 115.955901,40.0567803 L68.6044358,87.5362228 Z" fill="#FF6C37"></path>
            <path d="M29.8274248,142.438327 C29.3155171,142.694281 29.0595632,143.206189 29.1875401,143.718097 L31.363148,152.932436 C31.8750557,154.212205 31.1071941,155.747929 29.6994479,156.131859 C28.6756324,156.51579 27.52384,156.131859 26.8839553,155.363998 L12.8064926,141.414512 L58.7502118,95.4707927 L74.6193516,95.7267466 L85.3694141,106.476809 C82.8098754,108.652417 67.3246664,123.625718 29.8274248,142.438327 L29.8274248,142.438327 Z" fill="#FFFFFF"></path>
            <path d="M28.8036093,157.411629 C27.7797938,157.411629 26.7559784,157.027698 26.1160937,156.259836 L12.1666079,142.31035 C11.910654,142.054397 11.7826771,141.798443 11.7826771,141.414512 C11.7826771,141.030581 11.910654,140.774627 12.1666079,140.518673 L58.1103272,94.5749541 C58.366281,94.3190003 58.7502118,94.1910233 59.0061657,94.1910233 L74.8753055,94.4469772 C75.2592363,94.4469772 75.5151902,94.5749541 75.7711441,94.830908 L86.5212065,105.58097 C86.7771604,105.836924 86.9051373,106.220855 86.9051373,106.604786 C86.9051373,106.988717 86.7771604,107.244671 86.3932296,107.500624 L85.497391,108.268486 C71.931836,120.170341 53.5031576,132.072196 30.5952864,143.462143 L32.7708943,152.548505 C33.1548251,154.212205 32.3869635,156.003882 30.8512403,156.899721 C30.0833787,157.283652 29.443494,157.411629 28.8036093,157.411629 Z M14.7261466,141.414512 L27.9077708,154.468159 C28.2917016,155.108044 29.0595632,155.363998 29.6994479,154.980067 C30.3393325,154.596136 30.5952864,153.828275 30.2113556,153.18839 L28.0357477,143.974051 C27.7797938,142.822258 28.2917016,141.798443 29.3155171,141.286535 C51.9674343,129.896588 70.2681359,118.12271 83.705714,106.476809 L74.2354208,97.0065159 L59.5180734,96.750562 L14.7261466,141.414512 Z" fill="#FF6C37"></path>
            <path d="M1.9284532,152.420528 L12.9344695,141.414512 L29.3155171,157.795559 L3.20822254,156.003882 C2.05643013,155.875905 1.28856853,154.85209 1.41654546,153.700298 C1.41654546,153.18839 1.5445224,152.676482 1.9284532,152.420528 L1.9284532,152.420528 Z" fill="#FFFFFF"></path>
            <path d="M29.3155171,158.947352 L3.0802456,157.155675 C1.16059159,157.027698 -0.119177745,155.363998 0.00879918845,153.444344 C0.136776122,152.676482 0.39272999,151.908621 1.03261466,151.396713 L12.038631,140.390696 C12.5505387,139.878789 13.3184003,139.878789 13.830308,140.390696 L30.2113556,156.771744 C30.5952864,157.155675 30.7232633,157.667583 30.4673095,158.17949 C30.2113556,158.691398 29.8274248,158.947352 29.3155171,158.947352 L29.3155171,158.947352 Z M12.9344695,143.206189 L2.82429173,153.316367 C2.44036093,153.572321 2.44036093,154.212205 2.82429173,154.468159 C2.95226867,154.596136 3.0802456,154.724113 3.33619947,154.724113 L25.9881168,156.259836 L12.9344695,143.206189 Z" fill="#FF6C37"></path>
            <path d="M54.2710192,101.357732 C53.5031576,101.357732 52.9912498,100.717847 52.9912498,100.077962 C52.9912498,99.6940315 53.1192268,99.4380776 53.3751806,99.1821238 L65.7889432,86.7683612 C66.3008509,86.2564534 67.0687125,86.2564534 67.5806203,86.7683612 L75.6431671,94.830908 C76.0270979,95.2148388 76.1550749,95.5987696 76.0270979,96.1106774 C75.899121,96.4946082 75.5151902,96.878539 75.0032825,97.0065159 L54.526973,101.357732 C54.3989961,101.357732 54.2710192,101.357732 54.2710192,101.357732 L54.2710192,101.357732 Z M66.6847817,89.4558768 L58.2383041,97.9023544 L72.059813,94.9588849 L66.6847817,89.4558768 Z" fill="#FF6C37"></path>
            <path d="M74.6193516,95.7267466 L60.5418889,98.798193 C59.5180734,99.0541468 58.494258,98.4142622 58.2383041,97.3904467 C58.1103272,96.750562 58.2383041,96.1106774 58.7502118,95.5987696 L66.5568048,87.7921767 L74.6193516,95.7267466 Z" fill="#FFFFFF"></path>
            <path d="M60.2859351,100.077962 C58.494258,100.077962 57.0865117,98.670216 57.0865117,96.878539 C57.0865117,95.9827004 57.4704425,95.2148388 57.9823502,94.5749541 L65.7889432,86.7683612 C66.3008509,86.2564534 67.0687125,86.2564534 67.5806203,86.7683612 L75.6431671,94.830908 C76.0270979,95.2148388 76.1550749,95.5987696 76.0270979,96.1106774 C75.899121,96.4946082 75.5151902,96.878539 75.0032825,97.0065159 L60.9258197,100.077962 C60.6698659,100.077962 60.413912,100.077962 60.2859351,100.077962 L60.2859351,100.077962 Z M66.6847817,89.4558768 L59.7740273,96.3666312 C59.5180734,96.6225851 59.5180734,96.878539 59.6460504,97.1344928 C59.7740273,97.3904467 60.0299812,97.5184236 60.413912,97.5184236 L72.1877899,94.9588849 L66.6847817,89.4558768 Z" fill="#FF6C37"></path>
            <path d="M153.069212,19.7084478 C152.813258,18.9405862 151.91742,18.5566554 151.149558,18.8126093 C150.381697,19.0685632 149.997766,19.9644017 150.25372,20.7322633 C150.25372,20.8602402 150.381697,20.9882172 150.381697,21.1161941 C151.149558,22.6519173 150.893604,24.5715713 149.869789,25.9793176 C149.357881,26.6192023 149.485858,27.5150408 149.997766,28.0269485 C150.63765,28.5388563 151.533489,28.4108793 152.045397,27.7709947 C153.965051,25.3394329 154.348981,22.2679865 153.069212,19.7084478 L153.069212,19.7084478 Z" fill="#FF6C37"></path>
        </g>
    </g>
</svg>

<svg viewBox="0 0 256 256" xmlns="http://www.w3.org/2000/svg"><path fill="#FF6C37" d="M254.95 144.25C263.9 74.11 214.38 10 144.37 1.04 74.36-7.92 9.99 41.6 1.03 111.61c-8.96 70 40.56 134.24 110.57 143.33 70.13 8.95 134.24-40.57 143.33-110.71Z"/><g transform="translate(50.1812 45.1989)"><path fill="#FFF" d="M124.01 36.98L70 90.98 54.77 75.75c53.11-53.12 58.35-48.51 69.23-38.78v0Z"/><path fill="#FF6C37" d="M70.01 92.27c-.39 0-.64-.13-.9-.39L53.75 76.65c-.52-.52-.52-1.28 0-1.8 54-54.01 59.63-48.89 71.02-38.65 .25.25.38.51.38.89s-.13.63-.39.89L70.75 91.85c-.13.25-.52.38-.77.38ZM56.57 75.76L70 89.19l52.08-52.09c-9.48-8.45-15.87-11.01-65.53 38.64v0Z"/><path fill="#FFF" d="M85.49 106.47L70.77 91.75l54-54.01c14.46 14.58-7.17 38.26-39.29 68.72Z"/><path fill="#FF6C37" d="M85.49 107.75c-.39 0-.64-.13-.9-.39L69.87 92.64c-.26-.26-.26-.52-.26-.9 0-.39.12-.64.38-.9l54-54.01c.51-.52 1.27-.52 1.79 0 3.32 3.07 5.11 7.42 4.99 11.9 -.26 14.2-16.39 32.25-44.29 58.61 -.39.25-.77.38-1.03.38v0Zm-12.93-16c8.19 8.31 11.64 11.64 12.92 12.92 21.5-20.48 42.36-41.47 42.48-55.93 .12-3.33-1.16-6.66-3.33-9.22L72.54 91.73Z"/><path fill="#FFF" d="M55.03 76.14L65.9 87.01c.25.25.25.51 0 .76 -.13.12-.13.12-.26.12l-22.53 4.86c-1.16.12-2.18-.64-2.44-1.8 -.13-.64.12-1.28.51-1.67l13.05-13.06c.25-.26.63-.39.76-.13Z"/><path fill="#FF6C37" d="M42.75 94.06c-1.92 0-3.33-1.54-3.33-3.46 0-.9.38-1.8 1.02-2.44L53.49 75.1c.76-.64 1.79-.64 2.55 0l10.87 10.87c.76.63.76 1.79 0 2.55 -.26.25-.52.38-.9.51l-22.53 4.86c-.26 0-.52.12-.77.12v0Zm11.9-16.51L42.1 90.09c-.26.25-.39.63-.13 1.02 .12.38.51.51.89.38l21.11-4.61 -9.35-9.35Z"/><path fill="#FFF" d="M152.55 7.03c-8.2-7.94-21.38-7.68-29.31.63 -7.94 8.31-7.68 21.37.63 29.3 6.78 6.52 17.02 7.67 25.08 2.81l-14.59-14.59L152.53 7Z"/><path fill="#FF6C37" d="M138.22 44.02c-12.16 0-22.02-9.86-22.02-22.02s9.85-22.02 22.01-22.02c5.63 0 11.13 2.17 15.22 6.14 .25.25.38.51.38.89s-.13.63-.39.89l-17.28 17.27 13.56 13.56c.51.51.51 1.27 0 1.79 -.13.12-.13.12-.26.25 -3.33 2.04-7.3 3.19-11.27 3.19Zm0-41.34c-10.76 0-19.46 8.7-19.33 19.45 0 10.75 8.7 19.45 19.45 19.32 2.94 0 5.88-.64 8.57-2.05l-13.44-13.31c-.26-.26-.39-.52-.39-.9 0-.39.12-.64.38-.9L150.6 7.14c-3.46-2.95-7.81-4.48-12.42-4.48v0Z"/><path fill="#FFF" d="M152.94 7.42l-.26-.26 -18.31 18.04 14.46 14.46c1.4-.9 2.81-1.92 3.96-3.08 8.19-8.07 8.19-21.12.12-29.18V7.39Z"/><path fill="#FF6C37" d="M148.97 41.08c-.39 0-.64-.13-.9-.39L133.48 26.1c-.26-.26-.39-.52-.39-.9 0-.39.12-.64.38-.9l18.17-18.18c.51-.52 1.27-.52 1.79-.001l.38.25c8.57 8.57 8.57 22.39.12 31.09 -1.28 1.27-2.69 2.43-4.23 3.32 -.39.12-.64.25-.77.25v0Zm-12.8-15.87l12.92 12.92c1.02-.64 2.04-1.54 2.81-2.31 7.29-7.3 7.67-19.2.63-26.88l-16.39 16.25Z"/><path fill="#FFF" d="M126.19 39.28c-3.08-3.08-8.07-3.08-11.14 0L66.8 87.52l8.06 8.06 51.06-44.8c3.32-2.82 3.58-7.81.76-11.14 -.26-.13-.39-.26-.52-.39v0Z"/><path fill="#FF6C37" d="M74.74 96.87c-.39 0-.64-.13-.9-.39l-8.07-8.07c-.52-.52-.52-1.28 0-1.8l48.24-48.25c3.58-3.59 9.34-3.59 12.92 0 3.58 3.58 3.58 9.34 0 12.92 -.13.12-.26.25-.39.38L75.47 96.45c-.13.25-.39.38-.77.38v0Zm-6.15-9.35l6.27 6.27 50.16-44.03c2.81-2.31 3.07-6.53.76-9.35 -2.31-2.82-6.53-3.08-9.35-.77 -.13.12-.26.25-.52.38L68.55 87.49Z"/><path fill="#FFF" d="M29.82 142.43c-.52.25-.77.76-.64 1.27l2.17 9.21c.51 1.27-.26 2.81-1.67 3.19 -1.03.38-2.18 0-2.82-.77l-14.08-13.95 45.94-45.95 15.86.25 10.75 10.75c-2.56 2.17-18.05 17.14-55.55 35.96v0Z"/><path fill="#FF6C37" d="M28.8 157.41c-1.03 0-2.05-.39-2.69-1.16L12.16 142.3c-.26-.26-.39-.52-.39-.9 0-.39.12-.64.38-.9l45.94-45.95c.25-.26.63-.39.89-.39l15.86.25c.38 0 .63.12.89.38l10.75 10.75c.25.25.38.63.38 1.02 0 .38-.13.63-.52.89l-.9.76c-13.57 11.9-32 23.8-54.91 35.19l2.17 9.08c.38 1.66-.39 3.45-1.92 4.35 -.77.38-1.41.51-2.05.51Zm-14.08-16l13.18 13.05c.38.63 1.15.89 1.79.51 .63-.39.89-1.16.51-1.8l-2.18-9.22c-.26-1.16.25-2.18 1.27-2.69 22.65-11.39 40.95-23.17 54.39-34.81l-9.48-9.48 -14.72-.26 -44.8 44.66Z"/><path fill="#FFF" d="M1.92 152.42l11-11.01 16.38 16.38 -26.11-1.8c-1.16-.13-1.92-1.16-1.8-2.31 0-.52.12-1.03.51-1.28v0Z"/><g fill="#FF6C37"><path d="M29.31 158.94l-26.24-1.8c-1.92-.13-3.2-1.8-3.08-3.72 .12-.77.38-1.54 1.02-2.05l11-11.01c.51-.52 1.27-.52 1.79 0l16.38 16.38c.38.38.51.89.25 1.4 -.26.51-.64.76-1.16.76v0Zm-16.39-15.75L2.8 153.3c-.39.25-.39.89 0 1.15 .12.12.25.25.51.25l22.65 1.53 -13.06-13.06Z"/><path d="M54.27 101.35c-.77 0-1.28-.64-1.28-1.28 0-.39.12-.64.38-.9l12.41-12.42c.51-.52 1.27-.52 1.79 0l8.06 8.06c.38.38.51.76.38 1.27 -.13.38-.52.76-1.03.89l-20.48 4.35c-.13 0-.26 0-.26 0v0Zm12.41-11.91l-8.45 8.44 13.82-2.95 -5.38-5.51Z"/></g><path fill="#FFF" d="M74.61 95.72l-14.08 3.07c-1.03.25-2.05-.39-2.31-1.41 -.13-.64 0-1.28.51-1.8l7.8-7.81 8.06 7.93Z"/><g fill="#FF6C37"><path d="M60.28 100.07c-1.8 0-3.2-1.41-3.2-3.2 0-.9.38-1.67.89-2.31l7.8-7.81c.51-.52 1.27-.52 1.79 0l8.06 8.06c.38.38.51.76.38 1.27 -.13.38-.52.76-1.03.89l-14.08 3.07c-.26 0-.52 0-.64 0v0Zm6.39-10.63l-6.92 6.91c-.26.25-.26.51-.13.76 .12.25.38.38.76.38l11.77-2.56 -5.51-5.51Z"/><path d="M153.06 19.7c-.26-.77-1.16-1.16-1.92-.9 -.77.25-1.16 1.15-.9 1.91 0 .12.12.25.12.38 .76 1.53.51 3.45-.52 4.86 -.52.63-.39 1.53.12 2.04 .63.51 1.53.38 2.04-.26 1.91-2.44 2.3-5.51 1.02-8.07v0Z"/></g></g></svg>
